source/img/services/services-nav/sale-icon.svg

<svg width="33" height="33" viewBox="0 0 33 33" fill="none" xmlns="http://www.w3.org/2000/svg">
<path d="M19.3756 24.4941C16.8796 25.029 14.9186 24.717 14.25 24.4941V26.4998C16.7459 27.9261 18.707 27.0941 19.3756 26.4998V24.4941Z" fill="#AAAAAA"/>
<path d="M12.0215 21.5966L9.79297 17.8081C15.1414 19.7692 21.9012 18.6995 24.2783 17.8081L21.6041 21.5966C17.3253 22.8445 13.4329 22.1166 12.0215 21.5966Z" fill="#AAAAAA"/>
<path d="M5.55713 11.7914L7.56279 14.9113C11.3067 17.0507 21.1567 16.4713 25.3909 15.5799L28.5108 11.3457C19.9533 14.9113 9.64273 13.1285 5.55713 11.7914Z" fill="#AAAAAA"/>
<path fill-rule="evenodd" clip-rule="evenodd" d="M16.7265 7.17752C16.0603 7.17752 15.4065 7.19133 14.7691 7.21789C14.5269 7.22799 14.3223 7.04008 14.3122 6.79819C14.302 6.55629 14.4902 6.35201 14.7325 6.34191C15.3822 6.31484 16.0482 6.30078 16.7265 6.30078C20.2082 6.30078 23.3756 6.67114 25.6859 7.27818C26.8378 7.58085 27.8015 7.9487 28.4876 8.37497C29.1504 8.7867 29.678 9.33329 29.678 10.0269C29.678 10.7206 29.1504 11.2672 28.4876 11.6789C27.8015 12.1052 26.8378 12.473 25.6859 12.7757C23.3756 13.3827 20.2082 13.7531 16.7265 13.7531C13.2448 13.7531 10.0773 13.3827 7.76704 12.7757C6.61517 12.473 5.65147 12.1052 4.9653 11.6789C4.30253 11.2672 3.7749 10.7206 3.7749 10.0269C3.7749 9.46537 4.12413 9.00043 4.59036 8.63536C5.06285 8.26538 5.7246 7.94064 6.5157 7.65981C8.10271 7.09644 10.311 6.67501 12.8478 6.46021C13.0894 6.43975 13.3019 6.61873 13.3224 6.85996C13.3429 7.1012 13.1636 7.31335 12.922 7.33381C10.4277 7.54502 8.30055 7.95672 6.80984 8.4859C6.06208 8.75134 5.49942 9.03772 5.13221 9.32526C4.75874 9.6177 4.65298 9.85666 4.65298 10.0269C4.65298 10.2412 4.8256 10.5595 5.42917 10.9345C6.00934 11.2949 6.87806 11.6355 7.99051 11.9278C10.2089 12.5107 13.2977 12.8763 16.7265 12.8763C20.1552 12.8763 23.2441 12.5107 25.4624 11.9278C26.5749 11.6355 27.4436 11.2949 28.0238 10.9345C28.6273 10.5595 28.8 10.2412 28.8 10.0269C28.8 9.81268 28.6273 9.49434 28.0238 9.11939C27.4436 8.75896 26.5749 8.41836 25.4624 8.12606C23.2441 7.54315 20.1552 7.17752 16.7265 7.17752Z" fill="#0A3D76"/>
<path fill-rule="evenodd" clip-rule="evenodd" d="M28.8251 10.7587C29.0266 10.8934 29.0806 11.1656 28.9457 11.3668L19.9099 24.8456V25.983C19.9099 26.6514 19.472 27.2707 18.7919 27.4375C17.3713 27.786 16.3038 27.7745 14.8929 27.4347C14.209 27.2699 13.7634 26.6492 13.7634 25.9745V25.0648L4.72756 11.586C4.59268 11.3848 4.64669 11.1125 4.84819 10.9779C5.04969 10.8432 5.32238 10.8971 5.45725 11.0983L14.5673 24.6878C14.6156 24.76 14.6414 24.8448 14.6414 24.9316V25.9745C14.6414 26.2724 14.836 26.5191 15.0989 26.5824C16.379 26.8908 17.304 26.8997 18.5824 26.5861C18.8403 26.5229 19.0318 26.279 19.0318 25.983V24.7125C19.0318 24.6256 19.0576 24.5408 19.106 24.4686L28.216 10.8791C28.3509 10.678 28.6236 10.624 28.8251 10.7587Z" fill="#0A3D76"/>
<path fill-rule="evenodd" clip-rule="evenodd" d="M26.2082 14.8386C26.3353 15.0448 26.2709 15.3148 26.0644 15.4417C25.2777 15.9251 24.0506 16.2855 22.6145 16.5329C21.1654 16.7824 19.4575 16.9243 17.6761 16.9451C14.1238 16.9865 10.2189 16.5469 7.45557 15.477L7.77301 14.6596C10.3879 15.672 14.1661 16.1092 17.6659 16.0684C19.4105 16.048 21.0708 15.9091 22.4652 15.6689C23.8725 15.4265 24.9641 15.0883 25.6042 14.695C25.8107 14.5681 26.0812 14.6324 26.2082 14.8386ZM9.39297 18.1079C9.46965 17.8782 9.71828 17.7541 9.94831 17.8306C13.1543 18.8977 16.8122 19.1502 20.3868 18.5797C20.6263 18.5415 20.8514 18.7043 20.8897 18.9434C20.9279 19.1825 20.7649 19.4073 20.5254 19.4455C16.8242 20.0362 13.0225 19.778 9.67064 18.6624C9.44061 18.5858 9.31629 18.3375 9.39297 18.1079ZM24.1683 18.1169C24.24 18.3482 24.1104 18.5937 23.8787 18.6653C23.3252 18.8363 22.7655 18.9872 22.2018 19.1179C21.9656 19.1727 21.7297 19.0259 21.6749 18.79C21.62 18.5542 21.767 18.3186 22.0032 18.2639C22.5466 18.1379 23.0859 17.9925 23.6191 17.8277C23.8507 17.7561 24.0966 17.8856 24.1683 18.1169ZM17.0981 22.5891C15.2531 22.6031 13.2764 22.2944 11.5169 21.6143L11.8339 20.7967C13.4769 21.4317 15.3418 21.7257 17.0914 21.7124C18.846 21.699 20.448 21.377 21.5769 20.8134L21.9696 21.5976C20.6838 22.2395 18.9381 22.5751 17.0981 22.5891ZM15.2167 25.2901C14.6263 25.1799 14.0651 25.0092 13.5751 24.7809L13.9465 23.9864C14.3583 24.1783 14.847 24.3292 15.3781 24.4283C15.6165 24.4729 15.7736 24.7019 15.729 24.9398C15.6844 25.1778 15.4551 25.3347 15.2167 25.2901ZM19.9939 24.7758C19.0005 25.2717 17.7761 25.4676 16.6027 25.4359C16.3603 25.4293 16.1691 25.2278 16.1757 24.9858C16.1822 24.7438 16.384 24.5529 16.6264 24.5595C17.7002 24.5885 18.7717 24.4057 19.6012 23.9916L19.9939 24.7758Z" fill="#0A3D76"/>
</svg>

<svg width="33" height="33" fill="none" xmlns="http://www.w3.org/2000/svg"><path d="M19.376 24.494c-2.496.535-4.457.223-5.126 0V26.5c2.496 1.426 4.457.594 5.126 0v-2.006zm-7.355-2.897l-2.228-3.789c5.348 1.961 12.108.892 14.485 0l-2.674 3.789c-4.279 1.247-8.171.52-9.582 0zm-6.464-9.806l2.006 3.12c3.744 2.14 13.594 1.56 17.828.669l3.12-4.234c-8.558 3.565-18.868 1.783-22.954.445z" fill="#AAA"/><path fill-rule="evenodd" clip-rule="evenodd" d="M16.727 7.178c-.667 0-1.32.013-1.958.04a.439.439 0 11-.037-.876c.65-.027 1.316-.041 1.995-.041 3.481 0 6.649.37 8.959.977 1.152.303 2.116.67 2.802 1.097.662.412 1.19.958 1.19 1.652s-.528 1.24-1.19 1.652c-.686.426-1.65.794-2.802 1.097-2.31.607-5.478.977-8.96.977-3.481 0-6.649-.37-8.959-.977-1.152-.303-2.116-.67-2.802-1.097-.662-.412-1.19-.958-1.19-1.652 0-.562.35-1.027.815-1.392.473-.37 1.135-.694 1.926-.975 1.587-.564 3.795-.985 6.332-1.2a.439.439 0 11.074.874c-2.494.211-4.621.623-6.112 1.152-.748.265-1.31.552-1.678.84-.373.292-.479.53-.479.7 0 .215.173.534.776.909.58.36 1.45.7 2.562.993 2.218.583 5.307.948 8.736.948 3.428 0 6.517-.365 8.735-.948 1.113-.293 1.982-.633 2.562-.994.603-.374.776-.693.776-.907 0-.214-.173-.533-.776-.908-.58-.36-1.45-.7-2.562-.993-2.218-.583-5.307-.948-8.735-.948z" fill="#0A3D76"/><path fill-rule="evenodd" clip-rule="evenodd" d="M28.825 10.759a.438.438 0 01.12.608L19.91 24.846v1.137c0 .668-.438 1.288-1.118 1.454-1.42.349-2.488.337-3.9-.002a1.492 1.492 0 01-1.129-1.46v-.91L4.728 11.586a.438.438 0 11.73-.488l9.11 13.59a.438.438 0 01.073.244v1.043c0 .297.195.544.458.607 1.28.309 2.205.318 3.483.004a.61.61 0 00.45-.603v-1.27a.44.44 0 01.074-.244l9.11-13.59a.44.44 0 01.61-.12z" fill="#0A3D76"/><path fill-rule="evenodd" clip-rule="evenodd" d="M26.208 14.839a.438.438 0 01-.144.603c-.786.483-2.013.843-3.45 1.09-1.449.25-3.157.392-4.938.413-3.552.041-7.457-.398-10.22-1.468l.317-.817c2.615 1.012 6.393 1.45 9.893 1.408 1.744-.02 3.405-.159 4.8-.4 1.406-.241 2.498-.58 3.138-.973a.44.44 0 01.604.144zM9.393 18.108a.44.44 0 01.555-.277c3.206 1.067 6.864 1.32 10.439.749a.439.439 0 11.138.866c-3.7.59-7.502.332-10.854-.784a.438.438 0 01-.278-.554zm14.775.009a.438.438 0 01-.29.548 24.38 24.38 0 01-1.676.453.439.439 0 11-.199-.854 23.284 23.284 0 001.616-.436.44.44 0 01.55.289zm-7.07 4.472c-1.845.014-3.822-.295-5.581-.975l.317-.817c1.643.635 3.508.929 5.257.915 1.755-.013 3.357-.335 4.486-.899l.393.785c-1.286.642-3.032.977-4.872.991zm-1.881 2.701a6.93 6.93 0 01-1.642-.51l.372-.794c.411.192.9.343 1.431.442a.438.438 0 11-.161.862zm4.777-.514c-.994.496-2.218.692-3.391.66a.439.439 0 11.023-.877c1.074.03 2.146-.153 2.975-.567l.393.784z" fill="#0A3D76"/></svg>
